Adwaita++-Dark/actions/16/sidebar-places.svg

<svg height="16" width="16" xmlns="http://www.w3.org/2000/svg">
  <path d="m1 2v11s0 1 1 1h12s1 0 1-1v-9c0-1-1-1-1-1h-5l-2-2h-5s-1 0-1 1z" fill="#e6ddff"/>
</svg>

<svg xmlns="http://www.w3.org/2000/svg" width="16" height="16" version="1.1">
 <path style="fill:#E6DDFF" d="M 1,2 V 13 C 1,13 1,14 2,14 H 14 C 14,14 15,14 15,13 V 4 C 15,3 14,3 14,3 H 9 L 7,1 H 2 C 2,1 1,1 1,2 Z"/>
</svg>
